X:1
T:The Springtime it Brings on the Shearing
M:3/4
L:1/4
K:G
 d2 c| B B B| c A F| A G2-| G z B/2c/2| d B G| c d e| d3-| d z d/2c/2|\
 B B B| c A F| A G2-| G zG/2-A/2| B B B| c A F| G3-| G z2|
